X: 185
T: She la na Gig
N: Fifth and last dance in the Irish Lilt series.
B: 204 Favourite Country Dances
N: Published by Straight & Skillern, London ca.1775
F: http://imslp.org/wiki/204_Favourite_Country_Dances_(Various) p.93 #185
Z: 2014 John Chambers <jc:trillian.mit.edu>
M: 9/8
L: 1/8
K: D
% - - - - - - - - - - - - - - - - - - - - - - - - -
|:\
F2G ABc d3 | F2G AB=c B3 |\
F2G AB^c d3 | F2G AB=c B3 :|\
|:\
d2d ded cBA | B2B Bcd AFD |
d2d ded cBA | B2B BcB AFD :|\
|:\
G2A BGE BGE | F2G AFD AFD |\
G2A BGE BGE | FGA Bcd AFHD :|
% - - - - - - - - - - - - - - - - - - - - - - - - -
%%center End of the Irish Lilt.
%%begintext align
%% Turn your Partner with your Right hand & cast off .|
%% turn again with your Left hand the Man cast off &
%% the Wo. cast up .|. set 3 & 3 at top & bottom :|. then
%% set 3 & 3 sideways :|: Hands round 6 and turn
%% your Partner :||:
%%endtext

%%sep 1 1 500
%%sep 1 1 500
